packages/kaspersky-hexa-ui-icons/src/iconsSVGs/16x12/FlagSh.svg

<svg width="16" height="12" viewBox="0 0 16 12" fill="none" xmlns="http://www.w3.org/2000/svg">
<g clip-path="url(#clip0_41818_3674)">
<rect width="16" height="12" rx="2" fill="white"/>
<mask id="mask0_41818_3674" style="mask-type:luminance" maskUnits="userSpaceOnUse" x="0" y="0" width="16" height="12">
<rect width="16" height="12" rx="2" fill="white"/>
</mask>
<g mask="url(#mask0_41818_3674)">
<rect width="16" height="12" fill="url(#paint0_linear_41818_3674)"/>
<rect width="6.85714" height="5.6" fill="#042C90"/>
<mask id="mask1_41818_3674" style="mask-type:alpha" maskUnits="userSpaceOnUse" x="0" y="0" width="7" height="6">
<rect width="6.85714" height="5.6" fill="#042C90"/>
</mask>
<g mask="url(#mask1_41818_3674)">
<mask id="path-6-outside-1_41818_3674" maskUnits="userSpaceOnUse" x="-2.14679" y="-1.08125" width="10" height="8" fill="black">
<rect fill="white" x="-2.14679" y="-1.08125" width="10" height="8"/>
<path fill-rule="evenodd" clip-rule="evenodd" d="M2.64224 2.42888L-0.14679 -0.0812531H0.251644L3.04068 2.01052H3.83754L7.02501 -0.0812531V0.170435C7.02501 0.275354 6.97561 0.37415 6.89168 0.437102L4.23598 2.42888V3.26559L6.76244 5.53941C6.85478 5.62251 6.79599 5.77572 6.67176 5.77572C6.64243 5.77572 6.61389 5.7662 6.59043 5.74861L3.83754 3.68394H3.04068L-0.14679 5.77572V5.35736L2.64224 3.26559V2.42888Z"/>
</mask>
<path fill-rule="evenodd" clip-rule="evenodd" d="M2.64224 2.42888L-0.14679 -0.0812531H0.251644L3.04068 2.01052H3.83754L7.02501 -0.0812531V0.170435C7.02501 0.275354 6.97561 0.37415 6.89168 0.437102L4.23598 2.42888V3.26559L6.76244 5.53941C6.85478 5.62251 6.79599 5.77572 6.67176 5.77572C6.64243 5.77572 6.61389 5.7662 6.59043 5.74861L3.83754 3.68394H3.04068L-0.14679 5.77572V5.35736L2.64224 3.26559V2.42888Z" fill="#FF2E3B"/>
<path fill-rule="evenodd" clip-rule="evenodd" d="M2.64224 2.42888L-0.14679 -0.0812531H0.251644L3.04068 2.01052H3.83754L7.02501 -0.0812531V0.170435C7.02501 0.275354 6.97561 0.37415 6.89168 0.437102L4.23598 2.42888V3.26559L6.76244 5.53941C6.85478 5.62251 6.79599 5.77572 6.67176 5.77572C6.64243 5.77572 6.61389 5.7662 6.59043 5.74861L3.83754 3.68394H3.04068L-0.14679 5.77572V5.35736L2.64224 3.26559V2.42888Z" stroke="white" stroke-width="0.8" mask="url(#path-6-outside-1_41818_3674)"/>
<path fill-rule="evenodd" clip-rule="evenodd" d="M-1.04596 2.04548V3.65063H2.67518V5.8C2.67518 5.96569 2.8095 6.1 2.97518 6.1H3.9039C4.06958 6.1 4.2039 5.96569 4.2039 5.8V3.65063H7.05767C7.22335 3.65063 7.35767 3.51631 7.35767 3.35063V2.34548C7.35767 2.17979 7.22335 2.04548 7.05767 2.04548H4.2039V-1.00685H2.67518V2.04548H-1.04596Z" fill="white"/>
<path fill-rule="evenodd" clip-rule="evenodd" d="M-0.14679 2.42888H3.04068V2.01052V-0.0812531H3.83754V2.01052V2.42888H7.02501V3.26559H3.83754V3.68394V5.77572H3.04068V3.68394V3.26559H-0.14679V2.42888Z" fill="url(#paint1_linear_41818_3674)"/>
</g>
<path fill-rule="evenodd" clip-rule="evenodd" d="M10.1624 5.83348C10.1624 5.41971 10.1624 4.95537 10.1624 4.53316C10.1624 3.79678 10.7593 3.2 11.4957 3.2H12.2381C12.9745 3.2 13.5715 3.79678 13.5715 4.53316C13.5715 4.95537 13.5715 5.41971 13.5715 5.83348C13.5715 7.71454 11.8669 8.46696 11.8669 8.46696C11.8669 8.46696 10.1624 7.71454 10.1624 5.83348Z" fill="#8FC5FF"/>
<mask id="mask2_41818_3674" style="mask-type:luminance" maskUnits="userSpaceOnUse" x="10" y="3" width="4" height="6">
<path fill-rule="evenodd" clip-rule="evenodd" d="M10.1624 5.83348C10.1624 5.41971 10.1624 4.95537 10.1624 4.53316C10.1624 3.79678 10.7593 3.2 11.4957 3.2H12.2381C12.9745 3.2 13.5715 3.79678 13.5715 4.53316C13.5715 4.95537 13.5715 5.41971 13.5715 5.83348C13.5715 7.71454 11.8669 8.46696 11.8669 8.46696C11.8669 8.46696 10.1624 7.71454 10.1624 5.83348Z" fill="white"/>
</mask>
<g mask="url(#mask2_41818_3674)">
<path fill-rule="evenodd" clip-rule="evenodd" d="M11.2277 5.61198C11.2277 5.61198 11.6298 4.82643 11.8663 4.82643C12.1028 4.82643 12.1463 5.34804 12.5099 5.34804C12.8736 5.34804 13.0655 4.51674 13.4158 4.51674C13.7661 4.51674 13.4158 7.24408 13.4158 7.24408L12.9411 7.98277L10.1624 8.46696L11.2277 5.61198Z" fill="#366CC9"/>
<path fill-rule="evenodd" clip-rule="evenodd" d="M10.6724 5.05631L10.8136 4.51674L10.9523 5.90256L11.1386 4.51674L11.2987 8.46696L11.0324 8.24585L10.1624 6.6227L10.6724 5.05631Z" fill="#CF6200"/>
<rect x="9.51294" y="3.63892" width="4.54549" height="1.31674" fill="#FFFF00"/>
</g>
<mask id="path-14-inside-2_41818_3674" fill="white">
<path fill-rule="evenodd" clip-rule="evenodd" d="M9.90479 6C9.90479 5.34375 9.90479 4.56788 9.90479 3.99949C9.90479 3.55766 10.263 3.2 10.7048 3.2H12.9143C13.3561 3.2 13.7143 3.55766 13.7143 3.99949C13.7143 4.56788 13.7143 5.34375 13.7143 6C13.7143 8 11.8095 8.8 11.8095 8.8C11.8095 8.8 9.90479 8 9.90479 6Z"/>
</mask>
<path fill-rule="evenodd" clip-rule="evenodd" d="M9.90479 6C9.90479 5.34375 9.90479 4.56788 9.90479 3.99949C9.90479 3.55766 10.263 3.2 10.7048 3.2H12.9143C13.3561 3.2 13.7143 3.55766 13.7143 3.99949C13.7143 4.56788 13.7143 5.34375 13.7143 6C13.7143 8 11.8095 8.8 11.8095 8.8C11.8095 8.8 9.90479 8 9.90479 6Z" stroke="white" mask="url(#path-14-inside-2_41818_3674)"/>
</g>
</g>
<defs>
<linearGradient id="paint0_linear_41818_3674" x1="0" y1="0" x2="0" y2="12" gradientUnits="userSpaceOnUse">
<stop stop-color="#07319C"/>
<stop offset="1" stop-color="#00247E"/>
</linearGradient>
<linearGradient id="paint1_linear_41818_3674" x1="-0.14679" y1="-0.0812531" x2="-0.14679" y2="5.77572" gradientUnits="userSpaceOnUse">
<stop stop-color="#FF2E3B"/>
<stop offset="1" stop-color="#FC0D1B"/>
</linearGradient>
<clipPath id="clip0_41818_3674">
<rect width="16" height="12" fill="white"/>
</clipPath>
</defs>
</svg>

<svg xmlns="http://www.w3.org/2000/svg" width="16" height="12" fill="none" viewBox="0 0 16 12"><g clip-path="url(#a)"><rect width="16" height="12" fill="#fff" rx="2"/><mask id="b" width="16" height="12" x="0" y="0" maskUnits="userSpaceOnUse" style="mask-type:luminance"><rect width="16" height="12" fill="#fff" rx="2"/></mask><g mask="url(#b)"><path fill="url(#c)" d="M0 0h16v12H0z"/><path fill="#042c90" d="M0 0h6.8571v5.6H0z"/><mask id="d" width="7" height="6" x="0" y="0" maskUnits="userSpaceOnUse" style="mask-type:alpha"><path fill="#042c90" d="M0 0h6.8571v5.6H0z"/></mask><g mask="url(#d)"><mask id="e" width="10" height="8" x="-2" y="-1" fill="#000" maskUnits="userSpaceOnUse"><path fill="#fff" d="M-2.1468-1.0813h10v8h-10z"/><path fill-rule="evenodd" d="M2.6422 2.4289-.1468-.0813h.3984l2.789 2.0918h.797L7.025-.0813v.2517a.333.333 0 0 1-.1333.2667L4.236 2.4289v.8367l2.5264 2.2738c.0924.0831.0336.2363-.0906.2363a.136.136 0 0 1-.0814-.027L3.8375 3.6838h-.7968L-.1468 5.7757v-.4183l2.789-2.0918z" clip-rule="evenodd"/></mask><path fill="#ff2e3b" fill-rule="evenodd" d="M2.6422 2.4289-.1468-.0813h.3984l2.789 2.0918h.797L7.025-.0813v.2517a.333.333 0 0 1-.1333.2667L4.236 2.4289v.8367l2.5264 2.2738c.0924.0831.0336.2363-.0906.2363a.136.136 0 0 1-.0814-.027L3.8375 3.6838h-.7968L-.1468 5.7757v-.4183l2.789-2.0918z" clip-rule="evenodd"/><path stroke="#fff" d="M2.6422 2.4289-.1468-.0813h.3984l2.789 2.0918h.797L7.025-.0813v.2517a.333.333 0 0 1-.1333.2667L4.236 2.4289v.8367l2.5264 2.2738c.0924.0831.0336.2363-.0906.2363a.136.136 0 0 1-.0814-.027L3.8375 3.6838h-.7968L-.1468 5.7757v-.4183l2.789-2.0918z" clip-rule="evenodd" mask="url(#e)"/><path fill="#fff" fill-rule="evenodd" d="M-1.046 2.0455v1.6051h3.7212V5.8a.3.3 0 0 0 .3.3h.9287a.3.3 0 0 0 .3-.3V3.6506h2.8538a.3.3 0 0 0 .3-.3V2.3455a.3.3 0 0 0-.3-.3H4.2039v-3.0523H2.6752v3.0523z" clip-rule="evenodd"/><path fill="url(#f)" fill-rule="evenodd" d="M-.1468 2.4289h3.1875V-.0813h.7968V2.429H7.025v.8367H3.8375v2.5101h-.7968V3.2656H-.1468z" clip-rule="evenodd"/></g><path fill="#8fc5ff" fill-rule="evenodd" d="M10.1624 5.8335V4.5332c0-.7364.5969-1.3332 1.3333-1.3332h.7424c.7364 0 1.3334.5968 1.3334 1.3332v1.3003c0 1.881-1.7046 2.6335-1.7046 2.6335s-1.7045-.7525-1.7045-2.6335" clip-rule="evenodd"/><mask id="g" width="4" height="6" x="10" y="3" maskUnits="userSpaceOnUse" style="mask-type:luminance"><path fill="#fff" fill-rule="evenodd" d="M10.1624 5.8335V4.5332c0-.7364.5969-1.3332 1.3333-1.3332h.7424c.7364 0 1.3334.5968 1.3334 1.3332v1.3003c0 1.881-1.7046 2.6335-1.7046 2.6335s-1.7045-.7525-1.7045-2.6335" clip-rule="evenodd"/></mask><g mask="url(#g)"><path fill="#366cc9" fill-rule="evenodd" d="M11.2277 5.612s.4021-.7856.6386-.7856.28.5216.6436.5216c.3637 0 .5556-.8313.9059-.8313s0 2.7274 0 2.7274l-.4747.7387-2.7787.4842z" clip-rule="evenodd"/><path fill="#cf6200" fill-rule="evenodd" d="m10.6724 5.0563.1412-.5396.1387 1.3859.1863-1.3859.1601 3.9503-.2663-.2211-.87-1.6232z" clip-rule="evenodd"/><path fill="#ff0" d="M9.5129 3.6389h4.5455v1.3167H9.5129z"/></g><mask id="h" fill="#fff"><path fill-rule="evenodd" d="M9.9048 6V3.9995a.7996.7996 0 0 1 .8-.7995h2.2095c.4418 0 .8.3577.8.7995V6c0 2-1.9048 2.8-1.9048 2.8S9.9048 8 9.9048 6" clip-rule="evenodd"/></mask><path stroke="#fff" d="M9.9048 6V3.9995a.7996.7996 0 0 1 .8-.7995h2.2095c.4418 0 .8.3577.8.7995V6c0 2-1.9048 2.8-1.9048 2.8S9.9048 8 9.9048 6Z" clip-rule="evenodd" mask="url(#h)"/></g></g><defs><linearGradient id="c" x1="0" x2="0" y1="0" y2="12" gradientUnits="userSpaceOnUse"><stop stop-color="#07319c"/><stop offset="1" stop-color="#00247e"/></linearGradient><linearGradient id="f" x1="0" x2="0" y1="0" y2="6" gradientUnits="userSpaceOnUse"><stop stop-color="#ff2e3b"/><stop offset="1" stop-color="#fc0d1b"/></linearGradient><clipPath id="a"><path fill="#fff" d="M0 0h16v12H0z"/></clipPath></defs></svg>
